X: 9744
T: Delaney's
R: reel
M: 4/4
K: Edorian
|:(3BEE B^A =A2 BA|GFED EFGA|Beed e2 fe|dB~BA B2 (3^ABd|
e2 ef gfed|B^A=AB d2 B^A|B2 ed AdBA|GFED E2 (3FGA:|
|:eaag a2 ab|(3egf ed cB A2|eaag a2 Bc|d^dea ec A2|
[1eaag a2 ab|(3egf ed cB A2|B2 ed AdBA|GFED E2 z2:|
[2(3b=c'b ag f2 ef|(3gag fe c2 BA|B2 ed AdBA|GFED E2 z2||

